22x22/apps/rise-to-ruins.svg

<svg xmlns="http://www.w3.org/2000/svg" width="22" height="22" version="1">
 <path style="opacity:0.2" d="m 10,1.5019531 c -1.5914064,0.03 -2.9285454,0.010818 -4.5175781,0.095703 L 4.046875,3.2050781 4,19.5 4.00586,19.498 4,21.5 7.9199219,20.251953 C 8.0779093,19.647083 8.0720794,18.444539 8.0273438,17.388672 8.061305,16.819209 8.054095,16.142383 8.0292969,15.5 h 2.3339841 l 3.369141,4.197266 4.597656,-0.908204 v -2 L 15.248047,12.714844 C 16.043272,11.798829 16.863573,10.7955 16.839844,9.662109 17.021426,8.4078775 17.129755,7.3967243 16.984375,6.5703125 17.258573,4.1265829 16.937197,2.7492173 13.837891,2.0097656 12.582075,1.7072719 11.295968,1.4818719 10,1.5019531 Z m 2.267578,6 c 0.238656,0.2062313 0.397392,0.4587664 0.521484,0.7246094 -0.298286,0.6839082 -0.877715,1.2507995 -1.716796,1.4042965 -0.722961,0.167975 -2.077042,0.67108 -2.7500004,0.117188 0,0 -0.1283685,-0.7633116 -0.2167968,-1.6113282 C 8.1675676,7.842289 8.2635482,7.6150334 8.4414062,7.5703125 8.6962006,7.4824085 12.001701,7.5028162 12.267578,7.5019531 Z"/>
 <path style="fill:#54545a" d="m 9.999435,3.0012071 c -1.5914064,0.03 -2.9285773,0.010817 -4.51761,0.095702 L 4.0478514,4.7052869 4,21 7.9198673,19.750992 C 8.2289742,18.567547 7.906,14.999837 7.906,14.999837 h 2.457687 l 3.369097,4.196475 4.596621,-0.907215 V 16.28926 L 14.450548,13.15928 C 15.355021,11.997416 16.872412,10.697507 16.840269,9.162261 17.294524,6.0246132 17.37234,4.3531739 13.838253,3.5099897 12.582437,3.207496 11.295403,2.9811259 9.999435,3.0012071 Z m 2.268525,4.0010984 c 1.40807,1.2167634 0.758256,3.7705045 -1.195297,4.1278775 -0.722961,0.167975 -2.0764848,0.671078 -2.7494432,0.117186 0,0 -0.7454805,-3.9602797 0.1191399,-4.1776814 0.2547943,-0.087904 3.5597233,-0.066519 3.8256003,-0.067382 z"/>
 <path style="fill:#9696a0" d="m 9.999435,1.0013701 c -1.5914064,0.03 -2.9285773,0.010817 -4.51761,0.095702 L 4.0478514,2.7054499 4,19.000163 7.9198673,17.751155 C 8.2289742,16.56771 7.906,13 7.906,13 h 2.457687 l 3.369097,4.196475 4.596621,-0.907215 -3.878857,-5.129817 C 15.355021,9.997579 16.872412,8.6976699 16.840269,7.162424 17.294524,4.0247762 17.37234,2.3533369 13.838253,1.5101527 12.582437,1.207659 11.295403,0.9812889 9.999435,1.0013701 Z m 2.268525,4.0010984 c 1.40807,1.2167634 0.758256,3.7705047 -1.195297,4.1278775 -0.722961,0.167975 -2.0764848,0.671078 -2.7494432,0.117186 0,0 -0.7454805,-3.9602797 0.1191399,-4.1776814 0.2547943,-0.087904 3.5597233,-0.066519 3.8256003,-0.067382 z"/>
 <path style="opacity:0.15" d="m 8.1621094,1.0234375 c -0.121837,0.00127 -0.2535408,0.00432 -0.375,0.00586 0.00775,0.047996 0.010963,0.098651 0.00781,0.1542969 C 7.4619677,1.3871157 6.9899458,1.3831162 6.6230469,1.28125 6.6025099,1.2011598 6.6030118,1.1312394 6.6074219,1.0644531 6.4399676,1.0692186 6.2728844,1.0714907 6.1015625,1.078125 5.9084707,1.4273036 5.6187438,1.8098392 5.515625,2.0117188 5.6430614,2.9622561 5.5326721,3.9259785 5.421875,4.8769531 5.3260067,5.2796959 4.8702702,4.5062434 4.6953125,5.0800781 4.5602677,5.5684178 4.244711,5.2362118 4.0410156,4.9453125 l -0.00195,0.6269531 -0.00195,0.3984375 C 4.5152973,5.9806031 5.09056,6.1853057 5.4726562,5.8183594 6.4508501,5.3647492 5.5469,6.5166353 5.0449219,6.4550781 5.0365119,6.8759852 5.5522952,7.3974096 5.4980469,7.9863281 5.9357718,8.3627473 5.0450592,9.258411 5.7460938,9.207031 6.4988927,9.997056 7.0190347,9.023796 7.15625,8.2792969 7.3508335,8.3249559 7.6096002,8.3510153 7.8652344,8.4023438 7.7758615,7.8762424 7.5895892,6.6181699 7.6425781,5.6269531 7.3523292,5.3415487 7.7083826,3.703975 7.2167969,4.3378906 7.1868823,5.2744026 6.0971396,4.9913262 6.1484375,4.1816406 5.8470728,3.3871435 6.6447702,2.7476348 6.6191406,1.9394531 7.0764732,1.5613109 8.117949,1.731204 8.6699219,1.6933594 Z M 6.1816406,1.6132812 c 0.045474,-0.00643 0.093946,0.00422 0.140625,0.037109 C 6.3114656,1.7655608 6.2321066,1.8582531 6.1621094,1.943359 5.6255563,2.5080159 5.8633271,1.6582601 6.1816406,1.6132812 Z m 9.7597654,1.1308594 v 0.265625 c 0.116756,0.1076992 0.209299,0.3470422 0.179688,0.5585938 0.07553,0.5768009 -0.03985,0.6343179 -0.179688,0.4960937 v 1.1191407 c 0.162239,0.034734 0.289716,0.1725308 0.292969,0.4570312 0.02263,1.3753069 -0.495895,2.3867806 -1.375,3.3027344 C 14.489615,9.277379 14.133811,9.665027 13.685547,9.892578 13.684047,9.246876 14.282137,8.6803904 14.472656,8.0527344 14.859619,7.3328647 14.039048,7.6350114 13.708984,7.4296875 13.733,6.7313541 13.25845,7.1441763 12.947266,7.2734375 12.897372,7.492094 12.82203,7.7031169 12.716797,7.9023438 c 0.09369,-0.086979 0.189309,-0.076948 0.292969,0.1875 0.825553,0.6536995 -0.126581,1.0317202 -0.388672,1.6875002 -0.300558,0.861952 -1.16705,1.312397 -2.050782,1.203125 C 9.725178,11.091661 8.2081543,10.609376 7.5820312,11.365234 7.1964333,12.01753 6.4750934,11.748818 5.9160156,11.529297 5.1328766,11.103397 4.7203149,10.529703 4.1914062,9.837891 4.049288,8.8832796 4.046934,7.9170731 4.0351562,6.9511719 l -0.011719,4.1367191 c 0.047964,0.758779 0.092759,1.518774 0.1386719,2.277343 0.046274,0.914564 0.1404718,-0.02233 0.1386718,-0.404296 C 4.4097954,12.410187 4.023961,10.79661 5,11.517578 c 0.6848052,0.413286 0.8573481,1.021158 1.6816406,1.144531 l 1.2363282,0.548829 c 1.858e-4,-0.0097 -1.432e-4,-0.01955 0,-0.0293 C 7.9166399,13.166484 7.90625,13 7.90625,13 h 0.011719 c -0.00141,-0.3331 -0.013385,-0.667733 0.035156,-0.998047 0.1343863,-0.994401 1.873832,-0.824803 2.539063,-0.488281 0.595207,0.924013 1.50148,1.619326 1.955078,2.638672 0.447766,0.636248 0.714541,1.549099 1.376953,1.947265 0.932541,-0.02377 1.871193,-0.263337 2.214843,-1.197265 0.546619,-0.883132 0.923848,-0.15684 1.410157,0.224609 l -1.75586,-2.322265 c 0.09881,0.150797 0.197809,0.300387 0.28711,0.457031 -0.122744,0.550688 -0.138186,1.31176 -0.611328,1.779297 -0.445784,0.338385 -1.044735,0.637136 -1.617188,0.570312 -0.29304,-0.724349 -0.884119,-1.320661 -1.142578,-2.068359 0.306612,-0.925398 1.472696,0.298234 2.167969,0.195312 0.333238,-0.379273 -0.801527,-0.836461 -1.101563,-1.09375 -0.379736,-0.637918 -1.918378,0.286203 -1.585937,-0.611328 0.414531,-0.762394 1.457159,-1.171872 2.287109,-1.082031 0.0367,0.05453 0.07768,0.106115 0.115235,0.160156 0.0014,-0.0017 0.0025,-0.0041 0.0039,-0.0059 0.08111,-0.102533 0.178963,-0.21165 0.267578,-0.316407 -0.01797,-0.02266 -0.03627,-0.05039 -0.05469,-0.0625 -0.08832,-0.228491 -0.550921,-0.483401 -0.375,-0.693359 1.106968,-1.0687914 1.613642,-2.1700486 2.339844,-3.5429686 0.0631,0.4970837 0.06352,1.0007379 -0.01367,1.4941406 0.05905,-0.1332295 0.106067,-0.2672544 0.136719,-0.4042969 0.03065,-0.1370424 0.04592,-0.277115 0.04297,-0.4179687 0.07183,-0.4961361 0.115926,-0.9516137 0.130859,-1.3769532 -0.01276,-0.3214498 -0.0234,-0.6422167 -0.0332,-0.9628906 -0.09731,-0.8495522 -0.39677,-1.5330648 -0.996094,-2.078125 z M 5.8320312,4.4472656 c 0.018165,-0.011005 0.046711,-0.012084 0.085938,0.00391 0.113222,0.6799098 -0.2130967,0.07315 -0.085938,-0.00391 z m 0.65625,1.40625 c 0.9712072,0.081793 0.3725031,1.5310306 0.2890626,2.1972656 L 6.7265625,8.2265625 6.6757812,8.390625 C 6.5464281,9.480746 5.6725061,8.6183216 5.5957031,7.9941406 5.2643503,7.219053 5.4356077,5.8835252 6.4882812,5.8535156 Z m 6.5078128,0.6367188 c -4.62e-4,0.00394 -0.0015,0.00778 -0.002,0.011719 0.0041,0.04849 0.01636,0.095827 0.01758,0.1445313 0.02626,-0.052131 0.0532,-0.1037077 0.08008,-0.15625 z M 12.509766,8.2109375 C 12.209422,8.6173955 11.793091,8.9409687 11.251953,9.083984 10.969926,9.369183 10.69506,9.673151 10.34375,9.867188 10.25361,9.723773 10.115458,9.551324 9.994141,9.390625 c -0.150386,0.03184 -0.296233,0.06414 -0.447266,0.08203 0.386435,0.264237 0.66781,0.679843 0.980469,1.029297 0.678756,-0.7342 1.401143,-1.436828 1.966797,-2.2656249 0.0049,-0.00912 0.01074,-0.016274 0.01563,-0.025391 z m 5.482422,7.6328125 c 0.02171,0.166554 0.03401,0.334521 0.04102,0.503906 l 0.294922,-0.05859 z"/>
 <path style="opacity:0.2;fill:#f4f4f7" d="m 10,1.0019531 c -1.5914064,0.03 -2.9285454,0.010818 -4.5175781,0.095703 L 4.046875,2.7050781 4,19 H 4.00195 L 4.046875,3.2050781 5.4824219,1.5976562 C 7.0714546,1.5127713 8.4085936,1.5319531 10,1.5019531 c 1.295968,-0.020081 2.582075,0.2053188 3.837891,0.5078125 2.495135,0.5953048 3.177984,1.6159599 3.210937,3.2617188 C 17.144492,3.3213989 16.580334,2.1640748 13.837891,1.5097656 12.582075,1.2072719 11.295968,0.9818719 10,1.0019531 Z m 7.005859,5.2949219 c -0.0088,0.093013 -0.01068,0.1771388 -0.02148,0.2734375 0.03191,0.1813941 0.04727,0.3763598 0.05664,0.5761719 0.0082,-0.3019983 -0.0035,-0.5852762 -0.03516,-0.8496094 z m -4.359375,1.6796875 c -0.322643,0.5653342 -0.843158,1.0205607 -1.574218,1.1542965 -0.722961,0.167975 -2.077042,0.67108 -2.7500004,0.117188 0,0 -0.091705,-0.6498827 -0.1679687,-1.2558595 -0.014767,0.050777 -0.036901,0.087981 -0.048828,0.1445313 0.088428,0.8480162 0.2167968,1.6113282 0.2167968,1.6113282 0.6729584,0.553892 2.0270393,0.05079 2.7500003,-0.117188 0.839081,-0.153497 1.418511,-0.720388 1.716796,-1.4042965 -0.04035,-0.086431 -0.09335,-0.1675159 -0.142578,-0.25 z m 2.800782,4.4999995 c -0.0672,0.07888 -0.131847,0.160677 -0.199219,0.238282 l 3.082031,4.074218 v -0.5 z M 8.0292969,15.5 c 0.00899,0.232832 0.012381,0.469949 0.015625,0.705078 0.00241,-0.232933 0.00134,-0.464423 -0.00391,-0.705078 z m 0.00195,1.716797 c -0.00248,0.05519 -7.204e-4,0.118454 -0.00391,0.171875 0.016748,0.395304 0.016338,0.801857 0.015625,1.199219 0.014064,-0.432099 0.0036,-0.905242 -0.011719,-1.371094 z M 4.0039062,19.498047 4,21 h 0.00195 l 0.00391,-1.501953 z"/>
</svg>

<svg xmlns="http://www.w3.org/2000/svg" width="22" height="22" version="1"><path style="opacity:.2" d="M10 1.502c-1.591.03-2.929.01-4.518.096L4.047 3.205 4 19.5l.006-.002L4 21.5l3.92-1.248c.158-.605.152-1.807.107-2.863.034-.57.027-1.247.002-1.889h2.334l3.37 4.197 4.597-.908v-2l-3.082-4.074c.795-.916 1.616-1.92 1.592-3.053.181-1.254.29-2.265.144-3.092.275-2.443-.047-3.82-3.146-4.56-1.256-.303-2.542-.528-3.838-.508zm2.268 6c.238.206.397.459.521.725-.298.683-.878 1.25-1.717 1.404-.723.168-2.077.67-2.75.117 0 0-.128-.763-.217-1.611.063-.295.159-.522.336-.567.255-.088 3.56-.067 3.827-.068z"/><path style="fill:#54545a" d="M10 3.001c-1.592.03-2.93.011-4.518.096L4.048 4.705 4 21l3.92-1.249C8.229 18.568 7.906 15 7.906 15h2.458l3.369 4.196 4.596-.907v-2l-3.878-3.13c.904-1.162 2.421-2.461 2.39-3.997.454-3.137.531-4.809-3.003-5.652-1.256-.303-2.543-.529-3.839-.509zm2.268 4.001c1.408 1.217.758 3.77-1.195 4.128-.723.168-2.077.671-2.75.117 0 0-.745-3.96.12-4.177.254-.088 3.56-.067 3.825-.068z"/><path style="fill:#9696a0" d="M10 1.001c-1.592.03-2.93.011-4.518.096L4.048 2.705 4 19l3.92-1.249C8.229 16.568 7.906 13 7.906 13h2.458l3.369 4.196 4.596-.907-3.878-5.13c.904-1.161 2.421-2.461 2.39-3.997.454-3.137.531-4.809-3.003-5.652-1.256-.302-2.543-.529-3.839-.509zm2.268 4.001c1.408 1.217.758 3.771-1.195 4.128-.723.168-2.077.671-2.75.118 0 0-.745-3.96.12-4.178.254-.088 3.56-.067 3.825-.068z"/><path style="opacity:.15" d="m8.162 1.023-.375.006a.707.707 0 0 1 .008.155c-.333.203-.805.2-1.172.097a.66.66 0 0 1-.016-.217c-.167.005-.334.007-.505.014-.194.35-.483.732-.586.934.127.95.017 1.914-.094 2.865-.096.403-.552-.37-.727.203-.135.488-.45.156-.654-.135l-.002.627-.002.399c.478.01 1.054.214 1.436-.153.978-.453.074.699-.428.637-.008.421.507.942.453 1.531.438.377-.453 1.272.248 1.221.753.79 1.273-.183 1.41-.928.195.046.454.072.71.123-.09-.526-.276-1.784-.223-2.775-.29-.285.065-1.923-.426-1.29-.03.937-1.12.654-1.069-.155-.3-.795.497-1.434.471-2.243.457-.378 1.499-.208 2.05-.246zm-1.98.59a.193.193 0 0 1 .14.037c-.01.116-.09.208-.16.293-.536.565-.299-.285.02-.33zm9.76 1.131v.266c.116.107.209.347.18.558.075.577-.04.635-.18.496v1.12c.162.034.29.172.292.457.023 1.375-.496 2.386-1.375 3.302-.37.334-.725.722-1.173.95-.002-.646.596-1.213.787-1.84.387-.72-.434-.418-.764-.623.024-.699-.45-.286-.762-.157-.05.22-.125.43-.23.63.093-.088.19-.078.293.187.825.654-.127 1.032-.389 1.687-.3.862-1.167 1.313-2.05 1.203-.846.112-2.363-.37-2.989.385-.386.653-1.107.384-1.666.164-.783-.426-1.196-1-1.725-1.691-.142-.955-.144-1.92-.156-2.887l-.012 4.137c.048.759.093 1.519.14 2.277.045.915.14-.022.138-.404.109-.55-.277-2.164.699-1.443.685.413.857 1.02 1.682 1.144l1.236.549v-.03L7.906 13h.012c-.001-.333-.013-.668.035-.998.135-.994 1.874-.825 2.54-.488.594.924 1.5 1.619 1.954 2.638.448.637.715 1.55 1.377 1.948.933-.024 1.871-.264 2.215-1.198.547-.883.924-.156 1.41.225l-1.756-2.322c.1.15.198.3.287.457-.122.55-.138 1.311-.61 1.779-.447.338-1.046.637-1.618.57-.293-.724-.884-1.32-1.143-2.068.307-.925 1.473.298 2.168.195.334-.379-.801-.836-1.101-1.093-.38-.638-1.919.286-1.586-.612.414-.762 1.457-1.172 2.287-1.082.037.055.078.106.115.16.002-.001.003-.004.004-.006.081-.102.18-.211.268-.316-.018-.023-.037-.05-.055-.062-.088-.229-.55-.484-.375-.694 1.107-1.069 1.614-2.17 2.34-3.543.063.497.063 1-.014 1.494.06-.133.106-.267.137-.404.03-.137.046-.277.043-.418.072-.496.116-.952.13-1.377a105.55 105.55 0 0 1-.033-.963c-.097-.85-.396-1.533-.996-2.078zM5.831 4.447c.018-.01.047-.012.086.004.113.68-.213.073-.086-.004zm.656 1.407c.971.081.373 1.53.29 2.197l-.051.176-.051.164c-.13 1.09-1.003.227-1.08-.397-.332-.775-.16-2.11.892-2.14zm6.508.636-.002.012c.004.048.016.096.018.144l.08-.156zm-.486 1.72c-.3.407-.717.731-1.258.874-.282.285-.557.59-.908.783-.09-.143-.229-.316-.35-.476-.15.031-.296.064-.447.082.386.264.668.68.98 1.029.68-.734 1.401-1.437 1.967-2.266l.016-.025zm5.482 7.634c.022.166.034.334.041.504l.295-.059z"/><path style="opacity:.2;fill:#f4f4f7" d="M10 1.002c-1.591.03-2.929.01-4.518.096L4.047 2.705 4 19h.002l.045-15.795 1.435-1.607c1.59-.085 2.927-.066 4.518-.096 1.296-.02 2.582.205 3.838.508 2.495.595 3.178 1.616 3.21 3.261.096-1.95-.468-3.107-3.21-3.761-1.256-.303-2.542-.528-3.838-.508zm7.006 5.295c-.009.093-.01.177-.022.273.032.182.048.377.057.576a5.826 5.826 0 0 0-.035-.85zm-4.36 1.68c-.322.565-.843 1.02-1.574 1.154-.723.168-2.077.67-2.75.117 0 0-.091-.65-.168-1.256-.014.051-.037.088-.049.145.089.848.217 1.611.217 1.611.673.554 2.027.05 2.75-.117.84-.154 1.419-.72 1.717-1.404-.04-.087-.093-.168-.143-.25zm2.801 4.5c-.067.078-.132.16-.199.238l3.082 4.074v-.5zM8.03 15.5c.01.233.013.47.016.705.002-.233.001-.464-.004-.705zm.002 1.717c-.002.055 0 .118-.004.172.017.395.017.802.016 1.199.014-.432.004-.905-.012-1.371zm-4.027 2.281L4 21h.002l.004-1.502z"/></svg>
